src/assets/filled/Convert.svg

<svg width="24" height="24" viewBox="0 0 24 24"  xmlns="http://www.w3.org/2000/svg">
<path d="M12.0312 2.03027C10.0813 2.03027 8.26125 2.59027 6.73125 3.55027L13.5913 10.4203L13.6013 7.68027C13.6013 7.27027 13.9413 6.93027 14.3513 6.93027C14.7713 6.93027 15.1013 7.27027 15.1013 7.68027L15.0913 12.2303C15.0913 12.5403 14.9012 12.8103 14.6213 12.9203C14.5312 12.9603 14.4313 12.9803 14.3413 12.9803C14.1413 12.9803 13.9513 12.9003 13.8113 12.7603L5.62125 4.56027C5.58125 4.52027 5.55125 4.48027 5.52125 4.44027C3.38125 6.28027 2.03125 9.00027 2.03125 12.0303C2.03125 17.5503 6.51125 22.0303 12.0312 22.0303C13.9812 22.0303 15.8013 21.4703 17.3313 20.5103L10.4713 13.6403L10.4613 16.3803C10.4613 16.7903 10.1213 17.1303 9.71125 17.1303C9.29125 17.1303 8.96125 16.7903 8.96125 16.3803L8.97125 11.8303C8.97125 11.5203 9.16125 11.2503 9.44125 11.1403C9.71125 11.0203 10.0413 11.0803 10.2513 11.3003L18.4412 19.5003C18.4813 19.5403 18.5112 19.5803 18.5413 19.6203C20.6812 17.7803 22.0312 15.0603 22.0312 12.0303C22.0312 6.51027 17.5513 2.03027 12.0312 2.03027Z" />
</svg>

<?xml version="1.0" encoding="UTF-8"?>
<svg width="24" height="24" viewBox="0 0 24 24" xmlns="http://www.w3.org/2000/svg">
 <path d="m12.031 2.0303c-1.9499 0-3.77 0.56-5.3 1.52l6.86 6.87 0.01-2.74c0-0.41 0.34-0.75 0.75-0.75 0.42 0 0.75 0.34 0.75 0.75l-0.01 4.55c0 0.31-0.1901 0.58-0.47 0.69-0.0901 0.04-0.19 0.06-0.28 0.06-0.2 0-0.39-0.08-0.53-0.22l-8.19-8.2c-0.04-0.04-0.07-0.08-0.1-0.12-2.14 1.84-3.49 4.56-3.49 7.59 0 5.52 4.48 10 10 10 1.95 0 3.7701-0.56 5.3001-1.52l-6.86-6.87-0.01 2.74c0 0.41-0.34 0.75-0.75005 0.75-0.42 0-0.75-0.34-0.75-0.75l0.01-4.55c0-0.31 0.19-0.58 0.47-0.69 0.27-0.12 0.60005-0.06 0.81005 0.16l8.1899 8.2c0.0401 0.04 0.07 0.08 0.1001 0.12 2.1399-1.84 3.4899-4.56 3.4899-7.59 0-5.52-4.4799-10-10-10z"/>
</svg>
